!!!COM: Corelli, Arcangelo
!!!OTL: 
!!!ONM: Opus 5, No. 11
!!!OMV: 1
!!!CDT: 1653/2/17/-1713/1/8/
!!!OCY: Italia
**kern	**kern
*clefC	*clefG
*k[f#c#g#]	*k[f#c#g#]
*A:	*A:
*M4/4	*M4/4
=1	=1
8E	4.b
8F#	.
8G#	.
8E	8e
8A	4.cc#
8G#	.
8A	.
8F#	16dd#
.	16cc#
=2	=2
8G#	4.b
8F#	.
8G#	.
8E	8ee
8F#	8a
8E	16b
.	16cc#
8D#	8.b
8BB	.
.	16a
=3	=3
8E	8g#
8F#	8e
8G#	8r
8E	8gg#
8D#	4.ff#
8C#	.
8D#	.
8BB	16gg#
.	16ff#
=4	=4
8C#	8ee
8BB	16ff#
.	16gg#
8AA#	8.ff#
8FF#	.
.	16ee
8BB	8dd#
8C#	8b
8D#	8r
8BB	8ff#
=5	=5
8E	4gg#
8C#	.
8F#	4aa#
8D#	.
8G#	4.bb
16F#	.
16E	.
8D#	.
8BB	8ff#
=6	=6
8E	16gg#
.	16ff#
8C#	16ee
.	16dd#
8F#	8.cc#
8FF#	.
.	16b
8BB	4b
8B	.
8G#	8ee
8E	16ff#
.	16gg#
=7	=7
8A	8cc#
16B	8cc#
16c#	.
8D#	8.b
8BB	.
.	16a
8E	8g#
8F#	8e
8G#	8r
8E	8cc#
=8	=8
8D#	8b#
8C#	8cc#
8BB#	8dd#
8C#	8ee
8G#	8dd#
8F#	8g#
8E	8r
8C#	8gg#
=9	=9
4.A	8gg#
.	8cc#
.	8ff#
8F#	16gg#
.	16aa
8G#	8b#
8C#	16cc#
.	16dd#
8G#	8.dd#
8GG#	.
.	16cc#
=10	=10
8c#	4cc#
8B	.
8A	4.ee
8G#	.
4.A	.
.	16dd#
.	16cc#
.	[4ff#
8A#	.
=11	=11
4.B	8ff#]
.	16ee
.	16dd#
.	4.gg#
8B#	.
4.c#	.
.	16ff#
.	16ee
.	[4aa
8d#	.
=12	=12
8e	8aa]
8E	4gg#
8A	.
8AA	16ff#
.	16ee
8BB	8dd#
8B	8b
8G#	[4bb
8E	.
=13	=13
8A	8bb]
8G#	8ee
8F#	2aa
8E	.
8D#	.
8BB	.
8E	8gg#
8AA	8ff#
=14	=14
8BB	4gg#
8AA	.
8BB	4ff#
8BB	.
8E	4ee
8F#	.
8G#	[4b
8GG#	.
=15	=15
4.C#	8b]
.	8e
.	8a
8AA	16b
.	16cc#
4AA	8d#
.	8B
8GG#	8e
8AA	8cc#
=16	=16
2BB	4g#
.	4f#
2EE	2e
==	==
*-	*-
!!!RWG: This file only contains pitch and duration data.
!!!RWG: Transposing instruments are not transposed.
!!!RWG: Durations of rests and tied notes may be interpreted.
!!!RWG: Key is interpreted using the Humdrum key tool.
!!!SCA: 
!!!YOR: 
!!!AGN: violin
!!!AFT: stage1
!!!ENC: F. Bennion
!!!END: 1997/04/15
!!!AST: baroque
!!!YEC: Copyright 1994, Center for Computer Assisted Research in the Humanities
!!!YEM: Rights to all derivative electronic formats reserved.
!!!YEM: Refer to licensing agreement for further details.
!!!YEN: United States of America
!!!EED: W.B. Hewlett
!!!KEY: 3703016274
!!!EMD: Converted from MuseData to Humdrum Aug 9, 1999, by Bret Aarden using muse2kern.
!!!VTS: 1946294587
